X: 1
T: The Gift of Love
C:
C:
S:
Q: 1/4 = 100
M: 4/4 % time signature
L: 1/4 % default length
Z: Contributed 2008-11-10 01:45:02 by ming tsang tsang94@rogers.com
K:
%%staves    ss
%%measurenb 0
%%measurebox 1
V: ss clef=treble
V: aa
V: tt clef=bass
V: bb
K: A % key signature
%
%%MIDI program 1 0 % Piano 1
%%MIDI program 2 0 % Piano 1
%%MIDI program 3 0 % Piano 1
%%MIDI program 4 0 % Piano 1
%
% Page 1 : 1
[V: tt] z4 | z4 | z4 |
[V: tt] z "5"E, "1"A, "2"B, | ("3"C4 | "4"D) "4"D "2"B, "2"B, | "1"A,4 |
[V: tt] z "5"E, "1"A, "2"B, | ("3"C4 | "4"D) "4"D "4"D "2"B, | "5"E4 |
% Page 2 : 1
[V: tt] z "5"E "5"E "4"D | ("3"C4 | "4"D) "4"D "4"D "4"D | "3"C4 |
[V: tt] z "2"B, "1"A, "6"F, | "5"E,4-  | E, "7"G, "6"F, ("1"A,/"6"F,/) | "5"E,4 |
[V: tt] z4 | z4 | z4 | z4 |
% End
